src/status/symbolic/appointment-missed-symbolic.svg

<?xml version="1.0" encoding="UTF-8" standalone="no"?>
<svg
   xmlns:dc="http://purl.org/dc/elements/1.1/"
   xmlns:cc="http://creativecommons.org/ns#"
   xmlns:rdf="http://www.w3.org/1999/02/22-rdf-syntax-ns#"
   xmlns:svg="http://www.w3.org/2000/svg"
   xmlns="http://www.w3.org/2000/svg"
   id="svg8"
   version="1.1"
   width="16.001"
   height="16">
  <metadata
     id="metadata14">
    <rdf:RDF>
      <cc:Work
         rdf:about="">
        <dc:format>image/svg+xml</dc:format>
        <dc:type
           rdf:resource="http://purl.org/dc/dcmitype/StillImage" />
        <dc:title></dc:title>
      </cc:Work>
    </rdf:RDF>
  </metadata>
  <defs
     id="defs12" />
  <path
     id="path2"
     d="M 7.5 0 C 3.37 0 0 3.37 0 7.5 C 0 11.63 3.37 15 7.5 15 C 7.928 15 8.3449062 14.955719 8.7539062 14.886719 A 4.411 4.411 0 0 1 8.0917969 12.96875 C 7.8977969 12.98875 7.7 13 7.5 13 C 4.45 13 2 10.55 2 7.5 C 2 4.45 4.45 2 7.5 2 A 5.485 5.485 0 0 1 12.966797 8.09375 A 4.409 4.409 0 0 1 14.884766 8.7539062 A 7.46 7.46 0 0 0 15 7.5 C 15 3.37 11.63 0 7.5 0 z M 10.464844 4.0019531 A 0.5 0.5 0 0 0 10.416016 4.0058594 A 0.425 0.425 0 0 0 10.392578 4.0097656 L 10.392578 4.0175781 A 0.5 0.5 0 0 0 10.142578 4.1738281 L 7.4863281 6.8222656 L 5.8300781 5.1738281 A 0.5 0.5 0 1 0 5.1425781 5.8613281 L 7.1425781 7.8613281 A 0.5 0.5 0 0 0 7.8300781 7.8613281 L 10.830078 4.8613281 A 0.5 0.5 0 0 0 10.464844 4.0019531 z "
     style="color:#000000;font-weight:400;line-height:normal;font-family:sans-serif;font-variant-ligatures:normal;font-variant-position:normal;font-variant-caps:normal;font-variant-numeric:normal;font-variant-alternates:normal;font-feature-settings:normal;text-indent:0;text-align:start;text-decoration:none;text-decoration-line:none;text-decoration-style:solid;text-decoration-color:#000000;text-transform:none;text-orientation:mixed;white-space:normal;shape-padding:0;overflow:visible;isolation:auto;mix-blend-mode:normal;fill:#363636" />
  <path
     class="error"
     d="m 12.5,9 a 3.5,3.5 0 1 0 0,7 3.5,3.5 0 0 0 0,-7 z M 12,10 h 1 v 3 h -1 z m 0,4 h 1 v 1 h -1 z"
     overflow="visible"
     style="color:#bebebe;overflow:visible;fill:#ef2929;marker:none"
     id="path4" />
</svg>

<svg width="16" height="16" version="1.1" xmlns="http://www.w3.org/2000/svg">
 <path d="m7.5 0c-4.13 0-7.5 3.37-7.5 7.5s3.37 7.5 7.5 7.5c0.428 0 0.84491-0.044281 1.2539-0.11328a4.411 4.411 0 0 1-0.66211-1.918c-0.194 0.02-0.3918 0.03125-0.5918 0.03125-3.05 0-5.5-2.45-5.5-5.5s2.45-5.5 5.5-5.5a5.485 5.485 0 0 1 5.4668 6.0938 4.409 4.409 0 0 1 1.918 0.66016 7.46 7.46 0 0 0 0.11523-1.2539c0-4.13-3.37-7.5-7.5-7.5zm2.9648 4.002a0.5 0.5 0 0 0-0.048828 0.0039063 0.425 0.425 0 0 0-0.023438 0.0039062v0.0078125a0.5 0.5 0 0 0-0.25 0.15625l-2.6562 2.6484-1.6562-1.6484a0.5 0.5 0 1 0-0.6875 0.6875l2 2a0.5 0.5 0 0 0 0.6875 0l3-3a0.5 0.5 0 0 0-0.36523-0.85938z" color="#000000" fill="#363636" style="font-feature-settings:normal;font-variant-alternates:normal;font-variant-caps:normal;font-variant-ligatures:normal;font-variant-numeric:normal;font-variant-position:normal;isolation:auto;mix-blend-mode:normal;shape-padding:0;text-decoration-color:#000000;text-decoration-line:none;text-decoration-style:solid;text-indent:0;text-orientation:mixed;text-transform:none;white-space:normal"/>
 <path class="error" d="m12.5 9a3.5 3.5 0 1 0 0 7 3.5 3.5 0 0 0 0-7zm-0.5 1h1v3h-1zm0 4h1v1h-1z" color="#bebebe" fill="#ef2929" overflow="visible"/>
</svg>
